X: 2209
T: LADY CHARLOTTE CAMPBELL
C: R. Mc Intosh
Q: "Reel."
R: Reel.
%R: reel
B: James Kerr "Merry Melodies" v.2 p.23 #209
Z: 2016 John Chambers <jc:trillian.mit.edu>
M: C
L: 1/8
K: Bb
F |\
B3uf dBfd | edcB AFcA |\
B2(bf) dBfB | AFec dBB :|\
d |\
f2db g2Ee | c2Aa f2Dd |
B2Gg (ed)cB | AFec dBBd |\
fdba gfed | cAag fedc |\
BGgf edcB | AFec dBB |]

%%sep 1 1 500
%%sep 1 1 500

